symbols/web/remove_moderator/materialsymbolsrounded/remove_moderator_wght500fill1_20px.svg

<svg xmlns="http://www.w3.org/2000/svg" height="20" width="20"><path d="M15.958 13.375 5.667 3.083 9.312 1.75q.334-.125.688-.125.354 0 .688.125l4.854 1.833q.583.209.937.719.354.51.354 1.115v3.854q0 1.125-.218 2.135-.219 1.011-.657 1.969Zm-.208 4.958-1.938-1.958q-.645.646-1.468 1.146-.823.5-1.698.791-.146.042-.302.073-.156.032-.344.032-.188 0-.344-.021-.156-.021-.302-.063-2.708-.916-4.448-3.458-1.739-2.542-1.739-5.646V5.708l-1.521-1.52q-.271-.25-.271-.626 0-.374.25-.624.271-.292.646-.292t.646.271l14.125 14.125q.291.291.27.666-.02.375-.27.646-.25.292-.646.271-.396-.021-.646-.292Z"/></svg>

<svg xmlns="http://www.w3.org/2000/svg" height="20" width="20"><path d="M15.958 13.375 5.667 3.083 9.312 1.75Q9.646 1.625 10 1.625Q10.354 1.625 10.688 1.75L15.542 3.583Q16.125 3.792 16.479 4.302Q16.833 4.812 16.833 5.417V9.271Q16.833 10.396 16.615 11.406Q16.396 12.417 15.958 13.375ZM15.75 18.333 13.812 16.375Q13.167 17.021 12.344 17.521Q11.521 18.021 10.646 18.312Q10.5 18.354 10.344 18.385Q10.188 18.417 10 18.417Q9.812 18.417 9.656 18.396Q9.5 18.375 9.354 18.333Q6.646 17.417 4.906 14.875Q3.167 12.333 3.167 9.229V5.708L1.646 4.188Q1.375 3.938 1.375 3.562Q1.375 3.188 1.625 2.938Q1.896 2.646 2.271 2.646Q2.646 2.646 2.917 2.917L17.042 17.042Q17.333 17.333 17.312 17.708Q17.292 18.083 17.042 18.354Q16.792 18.646 16.396 18.625Q16 18.604 15.75 18.333Z"/></svg>
